X: 33116
T: Prince's Feather, The
R: reel
M: 4/4
K: Emajor
|GABc BG~G2|BGBc BGFG|EGBe Bcec|BEGB cF~F2|
cF~F2 c2BA|GBAF GEED|Ee~e2 eBBA|GBAF GE~E2:|
~F2FG FB,~B,2|FGAB AGFG|E2BE cEBE|GBed cBAG|
~F2FG FB,~B,2|FGAB AGFG|Ee~e2 eBBA|GBAF GE~E2:|

